X:1
T:My former hopes are fled
T:Thomas Clark
T:Text: William Cowper
T:This edition by Edmund Gooch released into the public domain, June 2015.
T:My former hopes are fled
T:STOCKTON. S.M. Hymn 290. Dr. Collyer.
C:Thomas Clark
Z:Text: William Cowper
%%score [ 1 2 3 4 ]
L:1/8
M:3/4
K:D
V:1 treble nm="Soprano" snm="S."
V:2 treble nm="Alto" snm="A."
V:3 treble-8 transpose=-12 nm="Tenor" snm="T."
V:4 bass nm="Bass" snm="B."
V:1
"^Larghetto" A2 | (d2 c2) B2 | A4 G2 | F4 F2 | (B2 A2) G2 | F4 E2 | D4 A2 | A4 d2 | c4 B2 | %9
w: When|I _ re-|view my|ways, I|dread _ im-|pen- ding|doom; But|sure a|friend- ly|
w: My|for- * mer|hopes are|fled, My|ter- * ror|now be-|gins; I|feel, a-|las! that|
w: Ah|whi- * ther|shall I|fly! I|hear _ the|thun- der|roar: The|law pro-|claims de-|
 B4 ^A2 | B4 c2 | (d2 A2) B2 | (E2 A2) G2 | (G2 F2) B2 | c4 d2 | (G2 F2) E2 | D4 |] %17
w: whis- per|says, Flee|from _ the|wrath _ to|come, _ flee|from the|wrath _ to|come.|
w: I am|dead In|tres- * pas-|ses _ and|sins, _ in|tres- pas-|ses _ and|sins.|
w: struc- tion|nigh, And|ven- * geance|at _ the|door, _ and|ven- geance|at _ the|door.|
V:2
 D2 | F4 G2 | F4 E2 | D4 D2 | D4 D2 | D4 C2 | D4 D2 | D4 F2 | F4 F2 | (G2 F2) E2 | D4 E2 | D4 D2 | %12
w: When|I re-|view my|ways, I|dread im-|pen- ding|doom; But|sure a|friend- ly|whis- * per|says, Flee|from the|
w: My|for- mer|hopes are|fled, My|ter- ror|now be-|gins; I|feel, a-|las! that|I _ am|dead In|tres- pas-|
w: Ah|whi- ther|shall I|fly! I|hear the|thun- der|roar: The|law pro-|claims de-|struc- * tion|nigh, And|ven- geance|
 (D2 C2) E2 | D4 D2 | E4 F2 | (E2 D2) C2 | D4 |] %17
w: wrath _ to|come, flee|from the|wrath _ to|come.|
w: ses _ and|sins, in|tres- pas-|ses _ and|sins.|
w: at _ the|door, and|ven- geance|at _ the|door.|
V:3
 F2 | A4 (Bc) | d4 A2 | A4 A2 | (G2 A2) B2 | A4 G2 | F4 F2 | F4 B2 | ^A4 B2 | (e2 d2) c2 | B4 A2 | %11
w: When|I re- *|view my|ways, I|dread _ im-|pen- ding|doom; But|sure a|friend- ly|whis- * per|says, Flee|
w: My|for- mer _|hopes are|fled, My|ter- * ror|now be-|gins; I|feel, a-|las! that|I _ am|dead In|
w: Ah|whi- ther _|shall I|fly! I|hear _ the|thun- der|roar: The|law pro-|claims de-|struc- * tion|nigh, And|
 (A2 d2) B2 | A4 c2 | d4 B2 | A4 A2 | (B2 A2) G2 | F4 |] %17
w: from _ the|wrath to|come, flee|from the|wrath _ to|come.|
w: tres- * pas-|ses and|sins, in|tres- pas-|ses _ and|sins.|
w: ven- * geance|at the|door, and|ven- geance|at _ the|door.|
V:4
 D,2 |"^8""^7" D,4"^64" D,2 | D,4"^65" C,2 | D,4 D,2 | (G,2"^6" F,2)"^7" E,2 |"^64" A,4"^73" A,,2 | %6
w: When|I re-|view my|ways, I|dread _ im-|pen- ding|
w: My|for- mer|hopes are|fled, My|ter- * ror|now be-|
w: Ah|whi- ther|shall I|fly! I|hear _ the|thun- der|
 D,4 D,2 | D,4 B,,2 |"^#" (F,2"^-" E,2)"^6" D,2 | %9
w: doom; But|sure a|friend- * ly|
w: gins; I|feel, a-|las! _ that|
w: roar: The|law pro-|claims _ de-|
"^I see, or think I see,A glimm’ring from afar;A beam of day that shines, for me,To save me from despair.Forerunner of the sun,It marks the pilgrim’s way:I’ll gaze upon it while I run,And watch the rising day." (E,2"^64" F,2)"^7#" F,2 | %10
w: whis- * per|
w: I _ am|
w: struc- * tion|
 G,4"^42" G,2 | %11
w: says, Flee|
w: dead In|
w: nigh, And|
"^6" F,4"^Notes:This setting is attributed ‘T. Clark’ in The Congregational Harmonist, where it ismarked with a crossed circle, a symbol used in that book to indicate ‘originals’(i.e. tunes not previously published).The order of parts in the source is Alto - Tenor - Air - Bass, with the Alto andTenor parts given in the treble clef an octave above sounding pitch.Only the first verse of the text is given in the source: subsequent verses havehere been added editorially." G,2 | %12
w: from the|
w: tres- pas-|
w: ven- geance|
"^4""^3" A,4"^7" ^A,2 |"^6""^5" B,4 G,2 |"^42" G,4"^6" F,2 |"^6" (G,2"^64" A,2)"^73" A,,2 | D,4 |] %17
w: wrath to|come, flee|from the|wrath _ to|come.|
w: ses and|sins, in|tres- pas-|ses _ and|sins.|
w: at the|door, and|ven- geance|at _ the|door.|

